X:526
T:B526-  Wilson's Wild
Q:1/4=120
L:1/4
M:3/4
K:C
G|c2G|E3/2D/E|F2E|D2G|\
c2G|E3/2D/E|D3/2C/D|[1 C2:|[2 C3]\
||:E3/2F/G|G3/2A/G|A3/2B/c|B2G::\
EGE|FAF|EGC|DFD|\
EGE|FAF|ECD|C3:|]
